24x24/places/folder-grey-onedrive.svg

<svg xmlns="http://www.w3.org/2000/svg" width="24" height="24" version="1">
 <rect style="opacity:0.2" width="20" height="12" x="2" y="9.5" rx="1" ry="1"/>
 <path style="fill:#727272" d="M 2,17 C 2,17.554 2.446,18 3,18 H 21 C 21.554,18 22,17.554 22,17 V 6 C 22,5.446 21.554,5 21,5 H 12 C 10.5,5 10,3 8.5,3 H 3 C 2.446,3 2,3.446 2,4"/>
 <rect style="opacity:0.2" width="20" height="12" x="2" y="8.5" rx="1" ry="1"/>
 <rect style="fill:#f4f4f7" width="16" height="8" x="4" y="7" rx="1" ry="1"/>
 <rect style="fill:#8e8e8e" width="20" height="12" x="2" y="9" rx="1" ry="1"/>
 <path style="opacity:0.1;fill:#f4f4f7" d="M 3,3 C 2.446,3 2,3.446 2,4 V 4.5 C 2,3.946 2.446,3.5 3,3.5 H 8.5 C 10,3.5 10.5,5.5 12,5.5 H 21 C 21.554,5.5 22,5.946 22,6.5 V 6 C 22,5.446 21.554,5 21,5 H 12 C 10.5,5 10,3 8.5,3 Z"/>
 <path style="fill:#f4f4f7" d="m 12.5,11 c -0.871735,0.0011 -1.679919,0.456316 -2.132813,1.201172 C 10.096909,12.069817 9.8005048,12.001057 9.4999998,12 c -1.104569,0 -2,0.89543 -2,2 2.94e-4,0.0065 5.76e-4,0.01302 9.77e-4,0.01953 -0.860819,0.123751 -1.500121,0.860825 -1.500977,1.73047 0,0.966498 0.783502,1.75 1.75,1.75 0.317187,-0.0012 0.628072,-0.08867 0.899414,-0.25293 -0.0943,-0.231426 -0.149414,-0.483099 -0.149414,-0.74707 0,-0.951457 0.689254,-1.716824 1.5839842,-1.915039 C 10.289857,13.413677 11.272138,12.5 12.5,12.5 h 9.76e-4 c 0.822411,10e-4 1.518645,0.467044 1.980469,1.125976 C 14.654023,13.578196 14.819683,13.500163 15,13.5 15,12.119288 13.880712,11 12.5,11 Z m 0,2 a 2,2 0 0 0 -2,2 A 1.5,1.5 0 0 0 8.9999998,16.5 1.5,1.5 0 0 0 10.5,18 h 6.25 A 1.25,1.25 0 0 0 18,16.75 1.25,1.25 0 0 0 16.75,15.5 1.25,1.25 0 0 0 16.499023,15.52734 1.5,1.5 0 0 0 16.5,15.5 1.5,1.5 0 0 0 15,14 1.5,1.5 0 0 0 14.315429,14.166015 2,2 0 0 0 12.5,13 Z"/>
</svg>

<svg xmlns="http://www.w3.org/2000/svg" width="24" height="24" version="1"><rect style="opacity:.2" width="20" height="12" x="2" y="9.5" rx="1" ry="1"/><path style="fill:#727272" d="M2 17c0 .554.446 1 1 1h18c.554 0 1-.446 1-1V6c0-.554-.446-1-1-1h-9c-1.5 0-2-2-3.5-2H3c-.554 0-1 .446-1 1"/><rect style="opacity:.2" width="20" height="12" x="2" y="8.5" rx="1" ry="1"/><rect style="fill:#f4f4f7" width="16" height="8" x="4" y="7" rx="1" ry="1"/><rect style="fill:#8e8e8e" width="20" height="12" x="2" y="9" rx="1" ry="1"/><path style="opacity:.1;fill:#f4f4f7" d="M3 3c-.554 0-1 .446-1 1v.5c0-.554.446-1 1-1h5.5c1.5 0 2 2 3.5 2h9c.554 0 1 .446 1 1V6c0-.554-.446-1-1-1h-9c-1.5 0-2-2-3.5-2z"/><path style="fill:#f4f4f7" d="M12.5 11a2.5 2.5 0 0 0-2.133 1.201A2 2 0 0 0 9.5 12a2 2 0 0 0-2 2l.001.02a1.75 1.75 0 0 0 .249 3.48 1.75 1.75 0 0 0 .9-.253 1.975 1.975 0 0 1-.15-.747c0-.951.69-1.717 1.584-1.915.206-1.171 1.188-2.085 2.416-2.085h.001c.822.001 1.519.467 1.98 1.126.173-.048.339-.126.519-.126a2.5 2.5 0 0 0-2.5-2.5zm0 2a2 2 0 0 0-2 2A1.5 1.5 0 0 0 9 16.5a1.5 1.5 0 0 0 1.5 1.5h6.25A1.25 1.25 0 0 0 18 16.75a1.25 1.25 0 0 0-1.25-1.25 1.25 1.25 0 0 0-.251.027 1.5 1.5 0 0 0 .001-.027A1.5 1.5 0 0 0 15 14a1.5 1.5 0 0 0-.685.166A2 2 0 0 0 12.5 13z"/></svg>
